X: 032235
T: Chambers of Melody
C: BB 12/06
N: 250
L: 1/8
M: 6/8
R: jig
Q: 1/4=180
K: Em
D | "Em"EDB, DGA |"Em"BAG E2A |"G"Bdc "Em"BGE |"Bm"FAB "D"AFD |
"Em"EB,E "C"GFG | "D"AFA "Em"B2c |"G"dcB "D"AFD |"Em"E3 "Em"E2 :|
B | "Em"edB g2f |"Em"edB d2c |"G"BGB "D"def |"G"gab "D"afd |
"Em"edB g2a |"Em"bgf e2f | "C"gfe "D"def | "Em"e3 "Em"e2 :|
